X:1
T:Title
%%score { ( 1 3 ) | ( 2 4 ) }
L:1/8
M:6/4
K:G
V:1 treble nm="Grand Piano"
V:3 treble 
V:2 bass 
V:4 bass 
V:1
 z6 z4[Q:1/4=100] [DB]2 | [DB]2 _B2 [D=B]2 [B,D]2 [DG]2 _B2 | B6 D4 [Ac]2 | %3
 [Ac]2 [^GB]2 [Ac]2 [FA]2 =G2 [DFA]2 |[M:5/4] [DGB]2- [DGB]2- [DGB]6 |[M:1/4] [DB]2 | %6
[M:6/4] [DB]2 _B2 [D=B]2 [B,D]2 [DG]2 [DB]2 | [CEA]6 [A,E]4 [Ed]2 | .[Ed]4 [CEA]2 .[DB]4 [CA]2 | %9
[M:5/4] [G,B,G]2- [G,B,G]2- [G,B,G]6 |[M:1/4] [FA]2 |[M:6/4] [FA]2 G2 F2 [Ac]2 [GB]2 [FA]2 | %12
 [FA]6 G4 d2 | d2 c2 B2 e2 d2 B2 |[M:5/4] [DFA]2- [DFA]2- [DFA]6 |[M:1/4] [DB]2 | %16
[M:6/4] [DB]2 _B2 [D=B]2 G,2- [G,DG]2 _B2 | B6 [=Fd]4 [Fd]2 | d2 c2 B2 A2 E2 [A,CF]2 | %19
[M:5/4] [G,B,G]2- [G,B,G]2- [G,B,G]6 |] %20
V:2
 z6 z4 G,2 | .G,6 z6 | [G,D]6 [G,B,]4 [D,D]2 | [D,D]4 [D,D]2 z2 E2 D,2 |[M:5/4] G,2- G,2- G,6 | %5
[M:1/4] G,2 |[M:6/4] z2 ^C2 G,2 z2 B,2 G,2 | C,6 C,4 [B,,^G,]2 | %8
 z2[K:treble] c2[K:bass] A,,2 z2 E,2 [D,F,]2 |[M:5/4] G,,2- G,,2- G,,6 |[M:1/4] D,2 | %11
[M:6/4] z2 E2 [D,D]2 [D,D]4 [D,C]2 | [E,B,]6 [E,B,E]4[K:treble] [G,B,D]2 | .D6 .G6 | %14
[M:5/4][K:bass] D,2- D,2- D,6 |[M:1/4] G,2 |[M:6/4] .G,6 z6 | [G,D]6 [B,,G,]4 [B,,G,]2 | %18
 [C,G,]4 [D,G,D]2 [G,^C]2- [A,,G,C]2 D,2 |[M:5/4] G,,2- G,,2- G,,6 |] %20
V:3
 x12 | z6 .G,6 | x12 | x12 |[M:5/4] x10 |[M:1/4] x2 |[M:6/4] x12 | x12 | x12 |[M:5/4] x10 | %10
[M:1/4] x2 |[M:6/4] .D6 z6 | x12 | x12 |[M:5/4] x10 |[M:1/4] x2 |[M:6/4] z6 .[B,D]6 | x12 | %18
 .E6 z6 |[M:5/4] x10 |] %20
V:4
 x12 | z2 ^C2 G,2 G,,2 B,,2 [D,F,D]2 | x12 | z6 .[D,D]6 |[M:5/4] x10 |[M:1/4] x2 | %6
[M:6/4] .G,6 .G,6 | x12 | .[A,,A,]6[K:treble][K:bass] .D,6 |[M:5/4] x10 |[M:1/4] x2 | %11
[M:6/4] .D,6 z6 | x10[K:treble] x2 | [B,G]2 [A,F]2 [G,DG]2 C2 [B,D]2 [G,DG]2 |[M:5/4][K:bass] x10 | %15
[M:1/4] x2 |[M:6/4] z2 ^C2 G,2 G,,2 B,,2 [D,F,D]2 | x12 | z6 .E,6 |[M:5/4] x10 |] %20

